X:1
T:Title
%%score { 1 | 2 }
L:1/8
M:4/4
K:F
V:1 treble nm="Grand Piano"
V:2 bass 
V:1
 z4 z2[Q:1/4=100] c>c | [cf]2 [ce]2 [Ad]2 [Ac]>[Ad] | [Fc]2 [F=B]2 [E_B]2 [Bc]>[Bc] | %3
 [Be]2 [Bd]2 [Bc]2 [GB][GB] | [FA]2 [Bc]2 c2 c>c | [cf]2 [ce]2 [Ad]2 [Ac]>[Ad] | %6
 [Gc]2 [=Bd]2 [ce]2 c>[Bd] | [ce]2 [=Bf]2 [cg]2 [Bf]>[Bd] |[M:3/4] [Gd]<[Gc] [Gc]4 | %9
[M:1/4] [Bd]>[Be] |[M:4/4] [Af]2 [cf]2 [dg]<[df] [Bd]2 | [Ac]2 [Bd]2 [Ac]2 [cf]2 | %12
 [Be]<[Be] [GB]2 [Be]2 [Bd]2 | [Bd]2 [Ac]2 [FA]2 c>c | [Af]2 [Be]2 [cg]2 [cf]>c | %15
[M:9/8] [ce]2 [Bd]- [Bd] [df]2- [df][_Ae]>[Ad] |[M:5/4] [Ac]2 [Ac]2 [Bd]3 e3 |[M:3/4] f<f f4 |] %18
V:2
 z4 z2 C>C | [F,A,]2 [F,A,]2 F,2 [F,,F,]>[F,,F,] | [A,,F,]2 [_A,,D,]2 [G,,C,]2 [C,E,]>[C,E,] | %3
 [C,G,]2 [C,F,]2 [C,E,]2 [C,E,]C, | [F,,C,]2 [G,,E,]2 [A,,F,]2 [G,B,]>[G,B,] | %5
 [F,A,]2 [F,A,]2 F,2 [F,,F,]>[F,,F,] | [G,,E,]2 [G,,G,]2 [C,G,]2 [E,G,]>[D,G,] | %7
 [C,G,]2 [D,G,]2 [E,C]2 [D,G,]>G, |[M:3/4] [C,F,]<[C,E,] [C,E,]4 |[M:1/4] [C,E,]>C, | %10
[M:4/4] [F,,C,]2 [A,,F,]2 [B,,B,]<[B,,B,] [B,,F,]2 | [F,,F,]2 [F,,F,]2 [F,,F,]2 [A,,F,]2 | %12
 [C,G,]<[C,G,] [C,E,]2 [C,G,]2 [C,E,]2 | [F,,F,]2 [F,,F,]2 [F,,C,]2 C,>C, | %14
 [F,,C,]2 [G,,C,]2 [A,,F,]2 [A,,F,]>[A,,F,] | %15
[M:9/8] [B,,F,]2 [B,,F,]- [B,,F,] [=B,,_A,]2- [B,,A,][B,,F,]>[B,,F,] | %16
[M:5/4] [C,F,]2 [C,F,]2 [C,E,]3 [G,,G,B,c]3 |[M:3/4] [F,,F,A,c]<[F,,F,A,c] [F,,F,A,c]4 |] %18

